src/components/icon/location-outline.svg

<svg xmlns="http://www.w3.org/2000/svg" width="16" height="16" viewBox="0 0 24 24">
<path d="M5,8 C5,4.13400675 8.13400675,1 12,1 C15.8659932,1 19,4.13400675 19,8 C19,9.26421098 18.6819707,10.4806386 18.0752945,11.4784725 C18.0006938,11.6011724 17.6409307,12.1746512 17.5609103,12.3038118 C17.3042421,12.7180988 17.0725885,13.1050141 16.8330294,13.5248231 C16.182378,14.6650397 15.5727042,15.8779997 14.9978397,17.2269221 C14.9062068,17.4419391 14.8159836,17.6593066 14.7272123,17.8790919 C14.3833642,18.7304116 13.9470411,20.2566623 13.4302849,22.4321924 L13.3775586,22.5925318 C12.8598397,23.8095922 11.1348273,23.8096687 10.6170004,22.5926543 L10.5647156,22.4342293 C10.0459938,20.2701836 9.61107668,18.7507225 9.27139318,17.9005685 C9.19813622,17.7172223 9.12396786,17.5356284 9.04891568,17.3557651 C8.46196964,15.9491432 7.83833943,14.6859339 7.18581937,13.5311606 C6.93635336,13.0896774 6.6921492,12.680766 6.44246106,12.2812473 C6.34561275,12.1262831 6.25099068,11.977562 6.14853194,11.8186659 C6.0875363,11.7240721 6.02150937,11.6224056 5.91531486,11.4589584 C5.30580074,10.5182578 5,9.2928504 5,8 Z M12.8727633,17.1300799 C12.9662946,16.8985095 13.061372,16.6694471 13.1579509,16.4428244 C13.7644895,15.0195788 14.4085748,13.7381562 15.0959522,12.5335801 C15.3485227,12.0909696 15.592225,11.6839301 15.8607563,11.250495 C15.9472906,11.1108204 16.3004441,10.5478775 16.3663644,10.4394547 C16.7760312,9.76565314 17,8.90899666 17,8 C17,5.23857625 14.7614237,3 12,3 C9.23857625,3 7,5.23857625 7,8 C7,8.93165763 7.21240696,9.78281664 7.59378307,10.3714178 C7.69803686,10.5318711 7.76629913,10.6369795 7.8293894,10.7348218 C7.93665857,10.9011779 8.03624109,11.0576956 8.13847881,11.2212832 C8.40319032,11.6448404 8.66240775,12.078891 8.92705992,12.5472494 C9.6174756,13.769087 10.2761337,15.103248 10.8946716,16.5855801 C10.9736129,16.7747636 11.051609,16.9657293 11.1286312,17.1584993 C11.384666,17.7992986 11.6724844,18.71997 11.9954544,19.927799 C12.3204038,18.7065992 12.6116461,17.7765697 12.8727633,17.1300799 Z M12,11 C10.3431458,11 9,9.65685425 9,8 C9,6.34314575 10.3431458,5 12,5 C13.6568542,5 15,6.34314575 15,8 C15,9.65685425 13.6568542,11 12,11 Z M12,9 C12.5522847,9 13,8.55228475 13,8 C13,7.44771525 12.5522847,7 12,7 C11.4477153,7 11,7.44771525 11,8 C11,8.55228475 11.4477153,9 12,9 Z"/>
</svg>

<svg xmlns="http://www.w3.org/2000/svg" width="16" height="16" viewBox="0 0 24 24"><path d="M5 8a7 7 0 1 1 14 0c0 1.264-.318 2.48-.925 3.478-.074.123-.434.697-.514.826a35.44 35.44 0 0 0-2.834 5.575c-.344.851-.78 2.378-1.297 4.553l-.052.16c-.518 1.218-2.243 1.218-2.761 0l-.052-.158c-.519-2.164-.954-3.683-1.294-4.533a35.634 35.634 0 0 0-2.086-4.37A32.567 32.567 0 0 0 6.15 11.82l-.234-.36C5.305 10.519 5 9.293 5 8zm7.873 9.13a37.432 37.432 0 0 1 2.988-5.88c.086-.14.44-.702.505-.81.41-.674.634-1.531.634-2.44A5 5 0 0 0 7 8c0 .932.212 1.783.594 2.371l.235.364c.108.166.207.323.31.486.264.424.523.858.788 1.326a37.629 37.629 0 0 1 2.202 4.611c.256.641.543 1.562.866 2.77.325-1.221.617-2.151.878-2.798zM12 11a3 3 0 1 1 0-6 3 3 0 0 1 0 6zm0-2a1 1 0 1 0 0-2 1 1 0 0 0 0 2z"/></svg>
